src/assets/svg/bud-wide.svg

<?xml version="1.0" encoding="UTF-8"?>
<svg viewBox="0 0 104 167" version="1.1" xmlns="http://www.w3.org/2000/svg" xmlns:xlink="http://www.w3.org/1999/xlink">
    <title>bud-wide</title>
    <g id="bud-wide" fill="currentColor" fill-rule="nonzero">
        <path d="M56.4121333,50.3 L56.4121333,78.17 C72.2621333,68.09 86.5621333,58.37 102.422133,48.2 C104.272133,58.07 103.532133,66.85 91.4921333,74.4 C84.9521333,78.5 75.8021333,80.29 65.5621333,80.78 C62.8421333,80.91 60.0721333,80.8 57.4821333,80.8 C55.8521333,83.54 55.6421333,108.25 57.2821333,112.21 C72.2421333,102.43 86.8121333,92.9 102.372133,82.72 C104.322133,92.37 103.512133,100.92 92.3521333,108.4 C85.5921333,112.93 75.8821333,114.88 64.8521333,115.33 C62.3521333,115.43 59.8221333,115.35 56.4921333,115.35 C55.8421333,125.8 56.3721333,136.02 56.1621333,146.25 L57.6721333,146.48 C72.2421333,136.95 86.8021333,127.41 102.372133,117.23 C104.312133,126.88 103.522133,135.44 92.3521333,142.92 C85.5821333,147.45 75.8521333,149.38 64.8421333,149.86 C62.3421333,149.97 58.864873,149.86 55.994873,149.86 L55.994873,166.941364 C52.2005615,166.941364 50.4124756,166.941364 47.1421333,166.941364 L47.1421333,150.19 C42.1921333,149.64 37.3421333,149.94 32.6321333,149.43 C19.6421333,148.03 10.6321333,144.31 5.48213333,138.3 C0.202133329,132.14 -0.857866671,125.64 0.592133329,119.01 C0.662133329,118.7 1.14213333,118.42 1.81213333,117.75 C16.7021333,127.49 31.3021333,137.05 46.7121333,147.13 L46.7121333,115.63 C41.9421333,115.1 37.0921333,115.42 32.3521333,114.88 C20.5321333,113.53 11.8221333,110.31 6.58213333,104.89 C0.0521333284,98.17 -0.977866671,91.05 1.45213333,83.6 C16.8921333,92.92 31.1921333,102.63 46.8521333,112.66 L46.8521333,81.3 C44.6321333,80.51 42.0121333,80.95 39.5721333,80.87 C23.4021333,80.3 11.5921333,76.58 5.28213333,69 C-0.0578666716,62.58 -0.867866671,55.91 2.03213333,48.87 C16.6421333,58.43 31.2521333,67.98 45.8621333,77.54 C47.2821333,72.96 47.1621333,68.45 47.1821333,63.95 C47.2021333,59.46 47.1821333,54.97 47.1821333,50.78 C46.5221333,49.78 45.3021333,49.42 44.2921333,48.96 C28.3621333,41.7 22.9921333,32.76 27.7821333,22.36 C31.6721333,13.9 40.2221333,6.6 51.1221333,0 C53.6321333,0.11 54.3321333,1.07 55.3621333,1.75 C65.1921333,8.24 72.9721333,15.22 76.2221333,23.3 C80.2821333,33.42 74.6721333,41.94 59.4821333,48.91 C58.4721333,49.37 57.4621333,49.83 56.4021333,50.31 L56.4121333,50.3 Z" id="Path"></path>
    </g>
</svg>

<?xml version="1.0" encoding="UTF-8"?>
<svg id="Layer_2" data-name="Layer 2" xmlns="http://www.w3.org/2000/svg" viewBox="0 0 103.2 169.22">
  <defs>
    <style>
      .cls-1 {
        fill: #f4e7d2;
      }
    </style>
  </defs>
  <g id="Layer_1-2" data-name="Layer 1">
    <g id="Cream">
      <path class="cls-1" d="m56.41,50.31v27.87c15.85-10.08,30.15-19.8,46.01-29.97,1.85,9.87,1.11,18.65-10.93,26.2-6.54,4.1-15.69,5.89-25.93,6.38-2.72.13-5.49.02-8.08.02-1.63,2.74-1.84,27.45-.2,31.41,14.96-9.78,29.53-19.31,45.09-29.49,1.95,9.65,1.14,18.2-10.02,25.68-6.76,4.53-16.47,6.48-27.5,6.93-2.5.1-5.03.02-8.36.02-.65,10.45-.12,20.67-.33,30.9l1.51.23c14.57-9.53,29.13-19.07,44.7-29.25,1.94,9.65,1.15,18.21-10.02,25.69-6.77,4.53-16.5,6.46-27.51,6.94-2.5.11-5.03.02-7.9.02-1.46,3.33-.55,6.52-.72,9.68-.16,3.08-.04,6.17-.04,9.66-3.83-.73-6.2-1.91-9.04-3.1v-15.93c-4.95-.55-9.8-.25-14.51-.76-12.99-1.4-22-5.12-27.15-11.13C.2,132.15-.86,125.65.59,119.02c.07-.31.55-.59,1.22-1.26,14.89,9.74,29.49,19.3,44.9,29.38v-31.5c-4.77-.53-9.62-.21-14.36-.75-11.82-1.35-20.53-4.57-25.77-9.99C.05,98.18-.98,91.06,1.45,83.61c15.44,9.32,29.74,19.03,45.4,29.06v-31.36c-2.22-.79-4.84-.35-7.28-.43-16.17-.57-27.98-4.29-34.29-11.87C-.06,62.59-.87,55.92,2.03,48.88c14.61,9.56,29.22,19.11,43.83,28.67,1.42-4.58,1.3-9.09,1.32-13.59.02-4.49,0-8.98,0-13.17-.66-1-1.88-1.36-2.89-1.82-15.93-7.26-21.3-16.2-16.51-26.6,3.89-8.46,12.44-15.76,23.34-22.36,2.51.11,3.21,1.07,4.24,1.75,9.83,6.49,17.61,13.47,20.86,21.55,4.06,10.12-1.55,18.64-16.74,25.61-1.01.46-2.02.92-3.08,1.4Z"/>
    </g>
  </g>
</svg>
